X:10
T:Bring Us in Real Ale
M:6/8
L:1/8
K:Bm
%
"Em" E2 E F2 G | A2 G F2 E | G2 F D2 E | F3-F2 B, |
D2 D E2 E | F3 D2 D | EG F E2 D | E3-E2 B |
"Em" A2 G F2 E | D2 C B,2 B, | D E2 D2 C | B,3-B,3 |
D2 D E2 E | F2 E D3 | EG F E2 D | "Em" E3-E3 |]
W:
W: Bring us in no brown bread, for that is made of bran,
W: Nor bring us in no white bread, for therein is no grain.
W:
W: But bring us in real ale, real ale,
W: And bring us in real ale.
W: For our blessed Lady's sake, bring us in real ale.
W:
W: Bring us in no beef, for there are many bones,
W: But bring us in good ale, for that goeth down at once.
W: 
W: But bring us in real ale...
W:
W: Bring us in no mutton, for that is seldom lean,
W: Nor bring us in no tripes, for they are seldom clean.
W: 
W: But bring us in real ale...
W:
W: Bring us in no eggs, for there are many shells,
W: But bring us in good ale, and bring us nothing else.
W: 
W: But bring us in real ale...
W:
W: Bring us in no capon's flesh, for that is often dear,
W: Nor bring us in no duck's flesh, for they slobber in the mire.
W: 
W: But bring us in real ale...
W: 
